X: 101
T: Miss Oliphant
R:Strathspey
S:MacDonald - Skye Collection
N:pg.38
M:C
L:1/8
K:D
d|(A<F) (F>D) EDEF|(A<F) (F>A) BABd|A<F F>D DCDF|(DB,A,B,) D2D:|
d|(d/4e/4f/4g/4) a3 g<f dd|f<gf<a f<e de/f/|a>baf f<e de/f/|(dBAB) d2d2|
(d/4e/4f/4g/4) a3 g<f dd|f<gf<a f<e de/f/|dBBd AFEF|(DB,A,B,) D2D2||


